!!!!SEGMENT: pl-sa--l-1643--096_anonim--veni-creator-spiritus.krn
!!!cenid: 16xx:1454
!!!COM: Anonim
!!!COM-rismid: pe30004985
!!!CDT:
!!!CNT:
!!!OTL: Veni creator spiritus
!!!PDT:
!!!AGN: Sacred
!!!SMS-siglum: PL-SA
!!!SMS-shelfmark: L 1643
!!!SMS-shelfwork: 096 W
!!!SMS-variant:
!!!SMS-altvar:
!!!NIFC-rismid: 1001064771
!!!URL-scan: http://repozytorium.nifc.pl/skany/pl-sa-nut--l1643
!!!ONB-nifc: UWAGA: 8 ksiąg. Primi chori: 1mus Cantus (172-173), C 2dus (190-191), C 3tius (170-171), Bassus (172-173); Secondi chori: Primus Cantus (x), C 2dus (x), Altus (x), Bassus (x). UWAGA: Nie dodawać pustych linii, chyba że w rękopisie pojawiają się dodatkowe oznaczenia dotyczące pełnej obsady (a 4, a 8 itp.)
**kern	**text	**text	**text	**text	**text	**text	**text	**kern	**text	**text	**text	**text	**text	**text	**text	**kern	**text	**text	**text	**text	**text	**text	**text	**kern	**text	**text	**text	**text	**text	**text	**text
*group1	*	*	*	*	*	*	*	*group1	*	*	*	*	*	*	*	*group1	*	*	*	*	*	*	*	*group1	*	*	*	*	*	*	*
*part4	*part4	*part4	*part4	*part4	*part4	*part4	*part4	*part3	*part3	*part3	*part3	*part3	*part3	*part3	*part3	*part2	*part2	*part2	*part2	*part2	*part2	*part2	*part2	*part1	*part1	*part1	*part1	*part1	*part1	*part1	*part1
*staff4	*staff4	*staff4	*staff4	*staff4	*staff4	*staff4	*staff4	*staff3	*staff3	*staff3	*staff3	*staff3	*staff3	*staff3	*staff3	*staff2	*staff2	*staff2	*staff2	*staff2	*staff2	*staff2	*staff2	*staff1	*staff1	*staff1	*staff1	*staff1	*staff1	*staff1	*staff1
*Iempty	*	*	*	*	*	*	*	*Iempty	*	*	*	*	*	*	*	*Iempty	*	*	*	*	*	*	*	*Iempty	*	*	*	*	*	*	*
*I"Bassus Primi Chori.	*	*	*	*	*	*	*	*I"Cantus 3tius Primi Chori	*	*	*	*	*	*	*	*I"Cantus 2dus Primi Chori.	*	*	*	*	*	*	*	*I"1m(us) Cantus Primi Chori	*	*	*	*	*	*	*
*I'[Coro 1 B]	*	*	*	*	*	*	*	*I'[Coro 1 C 3]	*	*	*	*	*	*	*	*I'[Coro 1 C 2]	*	*	*	*	*	*	*	*I'[Coro 1 C 1]	*	*	*	*	*	*	*
*clefC3	*	*	*	*	*	*	*	*clefC1	*	*	*	*	*	*	*	*clefC1	*	*	*	*	*	*	*	*clefG2	*	*	*	*	*	*	*
*k[]	*	*	*	*	*	*	*	*k[]	*	*	*	*	*	*	*	*k[]	*	*	*	*	*	*	*	*k[]	*	*	*	*	*	*	*
*C:	*	*	*	*	*	*	*	*C:	*	*	*	*	*	*	*	*C:	*	*	*	*	*	*	*	*C:	*	*	*	*	*	*	*
*M2/2	*	*	*	*	*	*	*	*M2/2	*	*	*	*	*	*	*	*M2/2	*	*	*	*	*	*	*	*M2/2	*	*	*	*	*	*	*
*met(C|)	*	*	*	*	*	*	*	*met(C|)	*	*	*	*	*	*	*	*met(C|)	*	*	*	*	*	*	*	*met(C|)	*	*	*	*	*	*	*
=1-	=1-	=1-	=1-	=1-	=1-	=1-	=1-	=1-	=1-	=1-	=1-	=1-	=1-	=1-	=1-	=1-	=1-	=1-	=1-	=1-	=1-	=1-	=1-	=1-	=1-	=1-	=1-	=1-	=1-	=1-	=1-
!LO:TX:t=P:problem:początek każdego wersu oznaczony czerwonym inicjałem	!	!	!	!	!	!	!	!LO:TX:t=P:problem:początek każdego wersu oznaczony czerwonym inicjałem	!	!	!	!	!	!	!	!	!	!	!	!	!	!	!	!	!	!	!	!	!	!	!
1g	Ve-	Qui	Tu-	Ac-	Ho-	Per	Glo-	1g	Ve-	Qui	Tu	Ac-	Ho-	Per	Glo-	1g	Ve-	Qui	Tu	Ac-	Ho-	Per	Glo-	1dd	Ve-	Qui	Tu	Ac-	Ho-	Per	Glo-
=2-	=2-	=2-	=2-	=2-	=2-	=2-	=2-	=2-	=2-	=2-	=2-	=2-	=2-	=2-	=2-	=2-	=2-	=2-	=2-	=2-	=2-	=2-	=2-	=2-	=2-	=2-	=2-	=2-	=2-	=2-	=2-
1d	-ni	pa-	-se-	-cen-	-stem	te	-ri-	1f	-ni	pa-	s(e)p-	-cen-	-stem	te	-ri-	1a	-ni	pa-	sep-	-cen-	-stem	te	-ri-	1.dd	-ni	pa-	sep-	-ce-	stem	te	-ri-
=3-	=3-	=3-	=3-	=3-	=3-	=3-	=3-	=3-	=3-	=3-	=3-	=3-	=3-	=3-	=3-	=3-	=3-	=3-	=3-	=3-	=3-	=3-	=3-	=3-	=3-	=3-	=3-	=3-	=3-	=3-	=3-
*	*	*	*	*	*	*	*	*	*	*	*	*	*	*	*	*lig	*	*	*	*	*	*	*	*	*	*	*	*	*	*	*
2g\	cre-	-ra-	.	.	re-	sci-	-a	2g/	cre-	-ra-	-ti	-de	re-	sci-	-a	1g	cre-	-ra-	-ti-	-de	re-	ſci-	-a	.	.	.	.	.	.	.	.
2c/	.	.	-pti	de	.	.	.	2e/	-a-	-cli-	for-	lu-	-pe-	-a-	pa-	.	.	.	.	.	.	.	.	2ee,>\	.	.	.	-nde	.	ſci-	-a
=4-	=4-	=4-	=4-	=4-	=4-	=4-	=4-	=4-	=4-	=4-	=4-	=4-	=4-	=4-	=4-	=4-	=4-	=4-	=4-	=4-	=4-	=4-	=4-	=4-	=4-	=4-	=4-	=4-	=4-	=4-	=4-
*lig	*	*	*	*	*	*	*	*	*	*	*	*	*	*	*	*	*	*	*	*	*	*	*	*	*	*	*	*	*	*	*
1d	-a-	-cli-	for-	lu-	-pel-	-a-	pa-	1a,>	-tor	-tus	-mis	-men	-las	-mus	-tri	1f	.	.	.	.	.	.	.	1dd	-cre-	-ra-	-pti-	lu-	re-	-a-	Pa-
*	*	*	*	*	*	*	*	*	*	*	*	*	*	*	*	*Xlig	*	*	*	*	*	*	*	*	*	*	*	*	*	*	*
=5-	=5-	=5-	=5-	=5-	=5-	=5-	=5-	=5-	=5-	=5-	=5-	=5-	=5-	=5-	=5-	=5-	=5-	=5-	=5-	=5-	=5-	=5-	=5-	=5-	=5-	=5-	=5-	=5-	=5-	=5-	=5-
1e	.	.	.	.	.	.	.	2g/	spi-	di-	mu-	sen-	lon-	da	Do-	1g	-a-	-cle-	-for-	lu-	-pel-	-a-	pa-	2.b/	-a-	-cle-	-for-	.	-pel-	.	.
.	.	.	.	.	.	.	.	2e/	-ri-	-ce-	.	.	.	pa-	.	.	.	.	.	.	.	.	.	.	.	.	.	.	.	.	.
.	.	.	.	.	.	.	.	.	.	.	.	.	.	.	.	.	.	.	.	.	.	.	.	4cc\	.	.	.	.	.	.	.
=6-	=6-	=6-	=6-	=6-	=6-	=6-	=6-	=6-	=6-	=6-	=6-	=6-	=6-	=6-	=6-	=6-	=6-	=6-	=6-	=6-	=6-	=6-	=6-	=6-	=6-	=6-	=6-	=6-	=6-	=6-	=6-
*	*	*	*	*	*	*	*	*	*	*	*	*	*	*	*	*lig	*	*	*	*	*	*	*	*	*	*	*	*	*	*	*
!	!	!	!	!	!	!	!	!LO:TX:b:t=P:problem:# below	!	!	!	!	!	!	!	!	!	!	!	!	!	!	!	!	!	!	!	!	!	!	!
1d	.	.	.	.	.	.	.	1f#X	-tus	-ris	-ne-	-si-	-gi-	.	-mi-	1a	-tor	-tus	-mis	-men	-las	-mus	-tri	2dd\	-tor	-tus	-mis	-men	-las	-mus	-tri
.	.	.	.	.	.	.	.	.	.	.	.	.	.	.	.	.	.	.	.	.	.	.	.	2a/	Spi-	di-	mu-	-ſen-	lon-	da	Do-
*Xlig	*	*	*	*	*	*	*	*	*	*	*	*	*	*	*	*	*	*	*	*	*	*	*	*	*	*	*	*	*	*	*
=7-	=7-	=7-	=7-	=7-	=7-	=7-	=7-	=7-	=7-	=7-	=7-	=7-	=7-	=7-	=7-	=7-	=7-	=7-	=7-	=7-	=7-	=7-	=7-	=7-	=7-	=7-	=7-	=7-	=7-	=7-	=7-
1G,>	-tor	-tus	-mis	men	-las	-mu[s]	-tri	1g	spi-	di-	-ra	-bus	-us	-tren	-no	1g	.	.	.	.	.	.	.	1b	-ri-	-ce-	-ne-	-si-	-gi-	Pa-	-mi-
*	*	*	*	*	*	*	*	*	*	*	*	*	*	*	*	*Xlig	*	*	*	*	*	*	*	*	*	*	*	*	*	*	*
=8-	=8-	=8-	=8-	=8-	=8-	=8-	=8-	=8-	=8-	=8-	=8-	=8-	=8-	=8-	=8-	=8-	=8-	=8-	=8-	=8-	=8-	=8-	=8-	=8-	=8-	=8-	=8-	=8-	=8-	=8-	=8-
2A/	Spi-	di-	mu-	sen-	lon-	a	Do-	1cc	ri-	-ce-	mu-	sen-	lon-	da	Do-	1cc	Spi-	di-	mu-	len-	lon-	da	Do-	2cc\	-tus	-ris	-re	-bus	-us	tre	-no
2c\	.	.	.	.	.	.	.	.	.	.	.	.	.	.	.	.	.	.	.	.	.	.	.	2ee\	Spi-	di	mu-	ſen-	lon-	da	Do-
=9-	=9-	=9-	=9-	=9-	=9-	=9-	=9-	=9-	=9-	=9-	=9-	=9-	=9-	=9-	=9-	=9-	=9-	=9-	=9-	=9-	=9-	=9-	=9-	=9-	=9-	=9-	=9-	=9-	=9-	=9-	=9-
1G	-ri-	-ce-	-ne-	-si-	-gi-	pa-	-mi-	1b	-tus	-ris	-ne-	-si-	-gi-	pa-	-mi-	1dd	-ri-	-ce-	-ne-	-si-	gi-	[Pa]-	-mi-	1dd	-ri-	-ce-	-ne-	-si-	-gi-	pa-	-mi-
=10-	=10-	=10-	=10-	=10-	=10-	=10-	=10-	=10-	=10-	=10-	=10-	=10-	=10-	=10-	=10-	=10-	=10-	=10-	=10-	=10-	=10-	=10-	=10-	=10-	=10-	=10-	=10-	=10-	=10-	=10-	=10-
0c;>	-tus.	-ris	-ra	-bus	-us	-trem	-no	0cc;;	.	.	-ra	-bus	-us	-tre	-no	0cc;<	-tus	-ris	-re	-bus	-us	-trem	-no	0ee;<	-tus	-ris	-re	-bus	-us	-tre	-no
=11||-	=11||-	=11||-	=11||-	=11||-	=11||-	=11||-	=11||-	=11||-	=11||-	=11||-	=11||-	=11||-	=11||-	=11||-	=11||-	=11||-	=11||-	=11||-	=11||-	=11||-	=11||-	=11||-	=11||-	=11||-	=11||-	=11||-	=11||-	=11||-	=11||-	=11||-	=11||-
1c	Men-	Do-	Dex-	In-	Pa-	Nos-	Na-	2.g/	Men-	Do-	Dex-	In-	Pa-	Nos-	Na-	1cc	Men-	Do-	De[x]-	In-	Pa-	Nos-	Na-	1ee	Men-	Do-	Dex-	In-	Pa-	[Nos-	Na-
.	.	.	.	.	.	.	.	4a\	.	.	.	.	.	.	.	.	.	.	.	.	.	.	.	.	.	.	.	.	.	.	.
=12-	=12-	=12-	=12-	=12-	=12-	=12-	=12-	=12-	=12-	=12-	=12-	=12-	=12-	=12-	=12-	=12-	=12-	=12-	=12-	=12-	=12-	=12-	=12-	=12-	=12-	=12-	=12-	=12-	=12-	=12-	=12-
2g\	-tes	-num	.	-fun-	-cem	-ca-	-to-	2b\	-tes	-num	.	-fun-	-cem-	-ca-	-to	1g	-tes	-num	-tre	-[fun]-	-cem-	-ca-	-to	2dd\	.	.	.	-fun-	.	-c]a-	-to
2e\	tu-	de-	stre	de	que	-mas	-que	2b\	tu-	dei	-stre	-de	-que	-mus	que	.	.	.	.	.	.	.	.	2ee,>\	-tes	-num	-tre	-de	-cem-	-mus	que
=13-	=13-	=13-	=13-	=13-	=13-	=13-	=13-	=13-	=13-	=13-	=13-	=13-	=13-	=13-	=13-	=13-	=13-	=13-	=13-	=13-	=13-	=13-	=13-	=13-	=13-	=13-	=13-	=13-	=13-	=13-	=13-
1f	-o-	-i	dei	amo-	do-	ad	qui	1a	-o-	al-	dei	amo-	do-	ad-	qui	1a	tu-	de-	de-	-de	-que	-mus	que	2.cc\	tu-	[Dei]	Dei	a-	-que	at-	qui
.	.	.	.	.	.	.	.	.	.	.	.	.	.	.	.	.	.	.	.	.	.	.	.	4dd\	-o-	.	.	-mo-	do-	.	a
=14-	=14-	=14-	=14-	=14-	=14-	=14-	=14-	=14-	=14-	=14-	=14-	=14-	=14-	=14-	=14-	=14-	=14-	=14-	=14-	=14-	=14-	=14-	=14-	=14-	=14-	=14-	=14-	=14-	=14-	=14-	=14-
2c/	-rum	al-	tu	-rem	-nes	que	a mor-	2g,>/	-rum	-ti	tu	-rem	-nes	-que	.	1cc	-o-	-i	-i	amo-	do-	ad-	qui	2ee\	-rum	al-	tu	-rem	-nes	-que	mo-
2c/	vi-	-ti-	di-	cor-	pro-	fi-	.	2cc\	vi-	si-	di-	cor-	pro-	fi-	a mor-	.	.	.	.	.	.	.	.	2ee\	Vi-	-ti-	di-	cor-	pro-	fi-	-rtu-
=15-	=15-	=15-	=15-	=15-	=15-	=15-	=15-	=15-	=15-	=15-	=15-	=15-	=15-	=15-	=15-	=15-	=15-	=15-	=15-	=15-	=15-	=15-	=15-	=15-	=15-	=15-	=15-	=15-	=15-	=15-	=15-
*	*	*	*	*	*	*	*	*	*	*	*	*	*	*	*	*lig	*	*	*	*	*	*	*	*	*	*	*	*	*	*	*
1g	-si-	-si-	-gi-	-di-	-ti-	-li-	-tu-	1b	-si-	-mi	-gi-	-di-	-ti-	-li-	-tu-	1dd	-rum	al-	tu	-rem	-nes	-que	a	1dd	-si-	-ſſi-	-gi-	-di-	-ti-	li-	-is
=16-	=16-	=16-	=16-	=16-	=16-	=16-	=16-	=16-	=16-	=16-	=16-	=16-	=16-	=16-	=16-	=16-	=16-	=16-	=16-	=16-	=16-	=16-	=16-	=16-	=16-	=16-	=16-	=16-	=16-	=16-	=16-
1c,>	-ta	-mi	-tus	-bus	-nu	-um	-is	1cc	-ta	al-	-tus	-bus	-nus	-um	-is	1cc	.	.	.	.	.	.	.	1ee,>	-ta	-mi	-tus	-bus	-nus	-um	a
*	*	*	*	*	*	*	*	*	*	*	*	*	*	*	*	*Xlig	*	*	*	*	*	*	*	*	*	*	*	*	*	*	*
=17-	=17-	=17-	=17-	=17-	=17-	=17-	=17-	=17-	=17-	=17-	=17-	=17-	=17-	=17-	=17-	=17-	=17-	=17-	=17-	=17-	=17-	=17-	=17-	=17-	=17-	=17-	=17-	=17-	=17-	=17-	=17-
1g	vi-	al-	di-	cor-	pro-	fi-	a mor-	1b	vi-	-ti	di-	cor-	pro-	fi-	a mor-	1dd	vi-	-ti-	di-	cor-	pro-	fi-	[mor]-	1dd	Vi-	alti-	di-	cor-	pro-	fi-	mor-
=18-	=18-	=18-	=18-	=18-	=18-	=18-	=18-	=18-	=18-	=18-	=18-	=18-	=18-	=18-	=18-	=18-	=18-	=18-	=18-	=18-	=18-	=18-	=18-	=18-	=18-	=18-	=18-	=18-	=18-	=18-	=18-
4c\	-si-	-ti-	-gi-	-di-	-ti-	-li-	-tu-	1cc	-si-	si-	-gi-	-di-	-ti-	-li-	-tu-	1ee	-si-	-si-	-gi-	-di-	-ti-	-li-	-tu-	1cc	-si-	-ſſi-	-gi-	-di-	-ti-	-li-	-tu-
4d\	.	.	.	.	.	.	.	.	.	.	.	.	.	.	.	.	.	.	.	.	.	.	.	.	.	.	.	.	.	.	.
4e\	.	.	.	.	.	.	.	.	.	.	.	.	.	.	.	.	.	.	.	.	.	.	.	.	.	.	.	.	.	.	.
4f\	.	.	.	.	.	.	.	.	.	.	.	.	.	.	.	.	.	.	.	.	.	.	.	.	.	.	.	.	.	.	.
=19-	=19-	=19-	=19-	=19-	=19-	=19-	=19-	=19-	=19-	=19-	=19-	=19-	=19-	=19-	=19-	=19-	=19-	=19-	=19-	=19-	=19-	=19-	=19-	=19-	=19-	=19-	=19-	=19-	=19-	=19-	=19-
0g	-ta	-simi	-tus	-bus	-nus	-um	-is	0b	-ta	-mi	-tus	-bus	-nus	-um	-is	0dd;<	-ta	-mi	-tus	-bus	-nus	-um	-is	0dd;<	-ta	-mi	-tus	-bus	-nus	-um	-is
!LO:PB:g=original	!	!	!	!	!	!	!	!LO:PB:g=original	!	!	!	!	!	!	!	!	!	!	!	!	!	!	!	!LO:PB:g=original	!	!	!	!	!	!	!
=20||-	=20||-	=20||-	=20||-	=20||-	=20||-	=20||-	=20||-	=20||-	=20||-	=20||-	=20||-	=20||-	=20||-	=20||-	=20||-	=20||-	=20||-	=20||-	=20||-	=20||-	=20||-	=20||-	=20||-	=20||-	=20||-	=20||-	=20||-	=20||-	=20||-	=20||-	=20||-
2r	.	.	.	.	.	.	.	2r	.	.	.	.	.	.	.	1cc	Im-	Fons	Tu	In-	Duc-	Te	Su-	2r	.	.	.	.	.	.	.
2c/	Im-	Fons	Tu	In-	Duc-	Te-	Su-	2e/	Im-	Fons	Tu	In-	Duc-	Te-	Su-	.	.	.	.	.	.	.	.	2ee\	Im-	Fons	Tu	In-	Duc-	T[e]	Su-
=21-	=21-	=21-	=21-	=21-	=21-	=21-	=21-	=21-	=21-	=21-	=21-	=21-	=21-	=21-	=21-	=21-	=21-	=21-	=21-	=21-	=21-	=21-	=21-	=21-	=21-	=21-	=21-	=21-	=21-	=21-	=21-
*	*	*	*	*	*	*	*	*	*	*	*	*	*	*	*	*lig	*	*	*	*	*	*	*	*	*	*	*	*	*	*	*
2B/	-ple	vi-	ri-	-fir-	-to-	-ut-	-re-	2b\	-ple	vi-	ri-	-fir-	-to-	-ut-	-re-	1dd	-ple	vi-	ri-	-fir-	-to-	ut-	-re-	2dd\	-ple	vi-	ri-	-fir-	-to-	ut-	-re-
2G/	su-	-vus	-te	-ma	-re	-ri-	.	2b\	su-	-vus	-te	-ma	-re	-rius-	-xit	.	.	.	.	.	.	.	.	2b\	su-	-vus	-te	-ma	-re	-riuſ	xit
=22-	=22-	=22-	=22-	=22-	=22-	=22-	=22-	=22-	=22-	=22-	=22-	=22-	=22-	=22-	=22-	=22-	=22-	=22-	=22-	=22-	=22-	=22-	=22-	=22-	=22-	=22-	=22-	=22-	=22-	=22-	=22-
1c	-per-	ig-	promi-	nos-	sic	-us	-xit	1.cc	-per-	ig-	pro-	no-	sic	-que	ac	1ee	.	.	.	.	.	.	.	2.cc\	-per-	ig-	pro-	no-	ſic-	que	ac
.	.	.	.	.	.	.	.	.	.	.	.	.	.	.	.	.	.	.	.	.	.	.	.	4dd\	.	.	.	.	.	.	.
*	*	*	*	*	*	*	*	*	*	*	*	*	*	*	*	*Xlig	*	*	*	*	*	*	*	*	*	*	*	*	*	*	*
=23-	=23-	=23-	=23-	=23-	=23-	=23-	=23-	=23-	=23-	=23-	=23-	=23-	=23-	=23-	=23-	=23-	=23-	=23-	=23-	=23-	=23-	=23-	=23-	=23-	=23-	=23-	=23-	=23-	=23-	=23-	=23-
*	*	*	*	*	*	*	*	*	*	*	*	*	*	*	*	*lig	*	*	*	*	*	*	*	*	*	*	*	*	*	*	*
1A,>	-na	-nis	-sum	-tri	te	que	ac	.	.	.	.	.	.	.	.	1cc	ſu-	-vus	-te	-ma	-res	-tri-	-xit	2ee\	.	.	-mi-	.	.	.	.
.	.	.	.	.	.	.	.	2a\	-na	-nis	-mi-	-stri-	te	.	pa-	.	.	.	.	.	.	.	.	2cc\	.	.	.	.	.	.	.
=24-	=24-	=24-	=24-	=24-	=24-	=24-	=24-	=24-	=24-	=24-	=24-	=24-	=24-	=24-	=24-	=24-	=24-	=24-	=24-	=24-	=24-	=24-	=24-	=24-	=24-	=24-	=24-	=24-	=24-	=24-	=24-
4G/	gra-	cha-	pa-	cor-	pre-	spi-	para-	2d/	gra-	cha-	-sum	-cor-	pr(a)e-	spi-	-ra-	1b	.	.	.	.	.	.	.	1dd,>	-na	-nis	-sum	-ſtri	-te	.	.
4A/	.	.	.	.	.	.	.	.	.	.	.	.	.	.	.	.	.	.	.	.	.	.	.	.	.	.	.	.	.	.	.
4B/	.	.	.	.	.	.	.	2.g/	-ti-	.	pa-	-po-	-vi-	-ri-	-cli-	.	.	.	.	.	.	.	.	.	.	.	.	.	.	.	.
4c/	.	.	.	.	.	.	.	.	.	.	.	.	.	.	.	.	.	.	.	.	.	.	.	.	.	.	.	.	.	.	.
*	*	*	*	*	*	*	*	*	*	*	*	*	*	*	*	*Xlig	*	*	*	*	*	*	*	*	*	*	*	*	*	*	*
!	!	!	!	!	!	!	!	!	!	!	!	!	!	!	!	!LO:PB:g=original	!	!	!	!	!	!	!	!	!	!	!	!	!	!	!
=25-	=25-	=25-	=25-	=25-	=25-	=25-	=25-	=25-	=25-	=25-	=25-	=25-	=25-	=25-	=25-	=25-	=25-	=25-	=25-	=25-	=25-	=25-	=25-	=25-	=25-	=25-	=25-	=25-	=25-	=25-	=25-
*	*	*	*	*	*	*	*	*	*	*	*	*	*	*	*	*lig	*	*	*	*	*	*	*	*	*	*	*	*	*	*	*
2.d\	-ti-	.	.	-po-	.	-ri-	-cli-	.	.	.	.	.	.	.	.	1a	-per-	i-	pro-	no-	ſic	-us-	ac	2.dd\	gra-	cha-	pa-	cor-	pre-	spi-	pa-
.	.	.	.	.	.	.	.	8fny/L	.	.	.	.	.	.	.	.	.	.	.	.	.	.	.	.	.	.	.	.	.	.	.
.	.	.	.	.	.	.	.	8e/J	.	.	.	.	.	.	.	.	.	.	.	.	.	.	.	.	.	.	.	.	.	.	.
!	!	!	!	!	!	!	!	!LO:TX:b:t=P:problem:# below	!	!	!	!	!	!	!	!	!	!	!	!	!	!	!	!	!	!	!	!	!	!	!
.	.	.	.	.	.	.	.	2f#X/	.	-ri-	.	.	.	.	.	.	.	.	.	.	.	.	.	.	.	.	.	.	.	.	.
4d\	.	.	-tris,	.	.	.	.	.	.	.	.	.	.	.	.	.	.	.	.	.	.	.	.	4dd\	-ci-	.	.	.	.	.	.
=26-	=26-	=26-	=26-	=26-	=26-	=26-	=26-	=26-	=26-	=26-	=26-	=26-	=26-	=26-	=26-	=26-	=26-	=26-	=26-	=26-	=26-	=26-	=26-	=26-	=26-	=26-	=26-	=26-	=26-	=26-	=26-
2G/	-a,	-tas,	tu-	-ris,	-vio,	-tum	-to,	2g,>/	-a,	-tas	-tris,	-ris,	-o,	-tum,	-to,	1f	.	.	.	.	.	.	.	2dd\	-a	-ri-	.	-po-	-vio	-ri-	-ra-
2g\	im-	fons	-ri-	in-	duc-	Te	su-	2g/	im-	fons	pro-	in	duc-	Te-	ac	.	.	.	.	.	.	.	.	2dd\	Im-	-tas	-tris	-ris	.	-tum	-cli-
*	*	*	*	*	*	*	*	*	*	*	*	*	*	*	*	*Xlig	*	*	*	*	*	*	*	*	*	*	*	*	*	*	*
=27-	=27-	=27-	=27-	=27-	=27-	=27-	=27-	=27-	=27-	=27-	=27-	=27-	=27-	=27-	=27-	=27-	=27-	=27-	=27-	=27-	=27-	=27-	=27-	=27-	=27-	=27-	=27-	=27-	=27-	=27-	=27-
*	*	*	*	*	*	*	*	*	*	*	*	*	*	*	*	*lig	*	*	*	*	*	*	*	*	*	*	*	*	*	*	*
2f\	-ple-	vi-	-te	-fir-	-to-	ut-	.	2a\	-ple	vi-	-mi-	fir-	-to-	-ut-	pa-	1cc	-na	-gnis	-mi-	ſtri	te	-que-	pa-	2ff\	-ple	Fons	Ta-	In-	Duc	T[e]-	-to
2f\	-su-	vus	pro-	-ma	-re	-rius-	-rex	2a\	su-	-vus	-sum	-ma	-re	-rius-	-ra-	.	.	.	.	.	.	.	.	2ff\	su-	vi-	-ri-	-fir-	[to-	-u-	Su
=28-	=28-	=28-	=28-	=28-	=28-	=28-	=28-	=28-	=28-	=28-	=28-	=28-	=28-	=28-	=28-	=28-	=28-	=28-	=28-	=28-	=28-	=28-	=28-	=28-	=28-	=28-	=28-	=28-	=28-	=28-	=28-
*lig	*	*	*	*	*	*	*	*	*	*	*	*	*	*	*	*	*	*	*	*	*	*	*	*	*	*	*	*	*	*	*
1d	-per-	ig-	-mi-	cor-	sic	-que	ac	1a	-per-	ig-	pa-	no-	sic	.	-cli-	1dd	.	.	.	.	.	.	.	2.ff\	-per-	-vus	-te	-ma	-re]	-trius	re-
.	.	.	.	.	.	.	.	.	.	.	.	.	.	.	.	.	.	.	.	.	.	.	.	4ee\	.	.	.	.	.	.	-xit
*	*	*	*	*	*	*	*	*	*	*	*	*	*	*	*	*Xlig	*	*	*	*	*	*	*	*	*	*	*	*	*	*	*
=29-	=29-	=29-	=29-	=29-	=29-	=29-	=29-	=29-	=29-	=29-	=29-	=29-	=29-	=29-	=29-	=29-	=29-	=29-	=29-	=29-	=29-	=29-	=29-	=29-	=29-	=29-	=29-	=29-	=29-	=29-	=29-
1g	.	.	.	.	.	.	.	1b	-na	-nis	-tris	-stri	te	-que	-to	1g	gra-	cha-	-sum	cor-	pre-	-spi-	-ra-	1dd	-na	i-	pro-	no-	ſic	que	-ac
*Xlig	*	*	*	*	*	*	*	*	*	*	*	*	*	*	*	*	*	*	*	*	*	*	*	*	*	*	*	*	*	*	*
=30-	=30-	=30-	=30-	=30-	=30-	=30-	=30-	=30-	=30-	=30-	=30-	=30-	=30-	=30-	=30-	=30-	=30-	=30-	=30-	=30-	=30-	=30-	=30-	=30-	=30-	=30-	=30-	=30-	=30-	=30-	=30-
*	*	*	*	*	*	*	*	*	*	*	*	*	*	*	*	*lig	*	*	*	*	*	*	*	*	*	*	*	*	*	*	*
2d\	-na	-nis	-su	-po-	te	spi-	pa-	2r	.	.	.	.	.	.	.	1a	-ci-	-ri-	pa-	-po-	-vi-	-ri-	-cli-	2dd\	gra-	-gnis	-mi-	-stri	te	spi-	Pa-
1f\	gra-	cha-	pa-	.	pre-	-ri-	-ra-	1a\	gra-	cha-	pa-	cor-	pr(a)e-	spi-	pa-	.	.	.	.	.	.	.	.	1ff\	.	cha-	-sum	cor-	pre-	-ri-	-ra-
=31-	=31-	=31-	=31-	=31-	=31-	=31-	=31-	=31-	=31-	=31-	=31-	=31-	=31-	=31-	=31-	=31-	=31-	=31-	=31-	=31-	=31-	=31-	=31-	=31-	=31-	=31-	=31-	=31-	=31-	=31-	=31-
.	.	.	.	.	.	.	.	.	.	.	.	.	.	.	.	1cc	.	.	.	.	.	.	.	.	.	.	.	.	.	.	.
2f\	-ti-	-ri-	-tris	-ris	.	.	-cli-	2a\	-ti-	-ri-	.	-po-	-u-	-ri-	-ra-	.	.	.	.	.	.	.	.	2ff\	ci-	-ri-	pa-	-po-	.	.	-cli-
*	*	*	*	*	*	*	*	*	*	*	*	*	*	*	*	*Xlig	*	*	*	*	*	*	*	*	*	*	*	*	*	*	*
=32-	=32-	=32-	=32-	=32-	=32-	=32-	=32-	=32-	=32-	=32-	=32-	=32-	=32-	=32-	=32-	=32-	=32-	=32-	=32-	=32-	=32-	=32-	=32-	=32-	=32-	=32-	=32-	=32-	=32-	=32-	=32-
0c;>	-a.	-tas	.	.	-vio	-tum	-to	0g;<	-a.	-ta.	-tr[i]s.	-ris.	-vio	-tum	-clito	0cc;<	-a.	-tas	-tris	-ris	-o	-tum	-to	0ee;<	-a.	-tas	-tris	-ris	-vio	-tum	-to
=33||-	=33||-	=33||-	=33||-	=33||-	=33||-	=33||-	=33||-	=33||-	=33||-	=33||-	=33||-	=33||-	=33||-	=33||-	=33||-	=33||-	=33||-	=33||-	=33||-	=33||-	=33||-	=33||-	=33||-	=33||-	=33||-	=33||-	=33||-	=33||-	=33||-	=33||-	=33||-
!	!	!	!	!	!	!	!	!	!	!	!	!	!	!	!	!LO:TX:t=P:problem:ubytki	!	!	!	!	!	!	!	!	!	!	!	!	!	!	!
*	*	*	*	*	*	*	*	*	*	*	*	*	*	*	*	*lig	*	*	*	*	*	*	*	*	*	*	*	*	*	*	*
4g\	Que	Et	Ser-	Vir-	Vi-	Cre-	In	1g	Que	Et	Ser-	Vir-	Vi-	Cre-	In	1b	Que	Et	Ser-	Vir-	Vi-	Cre-	[In]	1dd	Que	Et	Ser-	Vir-	Vi-	Cre-	In
4f\	.	.	.	.	.	.	.	.	.	.	.	.	.	.	.	.	.	.	.	.	.	.	.	.	.	.	.	.	.	.	.
4e\	.	.	.	.	.	.	.	.	.	.	.	.	.	.	.	.	.	.	.	.	.	.	.	.	.	.	.	.	.	.	.
4d\	.	.	.	.	.	.	.	.	.	.	.	.	.	.	.	.	.	.	.	.	.	.	.	.	.	.	.	.	.	.	.
=34-	=34-	=34-	=34-	=34-	=34-	=34-	=34-	=34-	=34-	=34-	=34-	=34-	=34-	=34-	=34-	=34-	=34-	=34-	=34-	=34-	=34-	=34-	=34-	=34-	=34-	=34-	=34-	=34-	=34-	=34-	=34-
1c	[tu]	spi-	-mo-	tu-	-te-	-da-	se-	2g/	tu	spi-	-mo-	-tu-	-te-	-da-	se-	1cc	.	.	.	.	.	.	.	1ee	tu	ſpi-	-mo-	-tu-	-te-	-da-	ſe-
.	.	.	.	.	.	.	.	2e/	cre-	-ri-	-ne	-te	-mus	-mus	-cu-	.	.	.	.	.	.	.	.	.	.	.	.	.	.	.	.
*	*	*	*	*	*	*	*	*	*	*	*	*	*	*	*	*Xlig	*	*	*	*	*	*	*	*	*	*	*	*	*	*	*
!	!	!	!	!	!	!	!	!LO:SIC:v:t=custos f	!	!	!	!	!	!	!	!	!	!	!	!	!	!	!	!	!	!	!	!	!	!	!
!	!	!	!	!	!	!	!	!LO:PB:g=original	!	!	!	!	!	!	!	!	!	!	!	!	!	!	!	!	!	!	!	!	!	!	!
=35-	=35-	=35-	=35-	=35-	=35-	=35-	=35-	=35-	=35-	=35-	=35-	=35-	=35-	=35-	=35-	=35-	=35-	=35-	=35-	=35-	=35-	=35-	=35-	=35-	=35-	=35-	=35-	=35-	=35-	=35-	=35-
1d	cre-	-ri-	-ne	-te	-mus	-mus	-cu-	1fny	-a-	-ta-	di-	fir-	om-	om-	-lo-	1a	tu	ſpi-	-mo-	tu-	-te-	-da-	ſe-	1dd	cre-	-ri-	-ne	-te	-mus	-mus	-cu-
!LO:v:s:t=custos e	!	!	!	!	!	!	!	!	!	!	!	!	!	!	!	!	!	!	!	!	!	!	!	!	!	!	!	!	!	!	!
!LO:PB:g=original	!	!	!	!	!	!	!	!	!	!	!	!	!	!	!	!	!	!	!	!	!	!	!	!	!	!	!	!	!	!	!
=36-	=36-	=36-	=36-	=36-	=36-	=36-	=36-	=36-	=36-	=36-	=36-	=36-	=36-	=36-	=36-	=36-	=36-	=36-	=36-	=36-	=36-	=36-	=36-	=36-	=36-	=36-	=36-	=36-	=36-	=36-	=36-
*	*	*	*	*	*	*	*	*	*	*	*	*	*	*	*	*lig	*	*	*	*	*	*	*	*	*	*	*	*	*	*	*
2e\	-a-	-ta-	di-	fir-	om-	om-	-lo-	1e	-sti	-lis	-tans	-mans	-ne	-ni	-rum	1g	cre-	-ri-	-ne-	-te	-mus	-mus	-cu-	2b/	-a-	-ta-	di-	fir-	om-	om-	-lo-
2c/	-sti	-lis	-tans	-mans	-ne	-ni	-ru	.	.	.	.	.	.	.	.	.	.	.	.	.	.	.	.	2ee\	-sti	.	tans	-mans	-ne	-ni	-rum
=37-	=37-	=37-	=37-	=37-	=37-	=37-	=37-	=37-	=37-	=37-	=37-	=37-	=37-	=37-	=37-	=37-	=37-	=37-	=37-	=37-	=37-	=37-	=37-	=37-	=37-	=37-	=37-	=37-	=37-	=37-	=37-
2d\	pec-	un-	gu-	per-	mo-	tem-	[s]e-	2a\	pec-	un-	gu-	per-	no-	tem-	se-	1f	.	.	.	.	.	.	.	2dd\	pec-	-lis	gu-	per-	no-	tem-	ſe-
2d\	-to-	.	-tu-	-pe-	-xi-	-po-	-cu-	2a\	-to-	-cti-	-tu-	-pe-	-x[i]-	-po-	-cu-	.	.	.	.	.	.	.	.	2dd\	-to-	un-	-ttu-	-pe-	-xi-	-po-	-cu-
*	*	*	*	*	*	*	*	*	*	*	*	*	*	*	*	*Xlig	*	*	*	*	*	*	*	*	*	*	*	*	*	*	*
=38-	=38-	=38-	=38-	=38-	=38-	=38-	=38-	=38-	=38-	=38-	=38-	=38-	=38-	=38-	=38-	=38-	=38-	=38-	=38-	=38-	=38-	=38-	=38-	=38-	=38-	=38-	=38-	=38-	=38-	=38-	=38-
2A,>/	-ra,	-ctio,	-ra,	-ti,	-um,	-re,	-la,	2cc,>\	-ra,	-o,	-ra,	-ti,	-um,	-re,	-la,	1a	-a-	-ta-	-di	fir-	om-	om-	-lo-	2ee\	-ra	-ctio	-ra	-ti	-um	-re	-la
!	!	!	!	!	!	!	!	!	!	!	!	!	!	!	!	!	!	!	!	!	!	!	!	!LO:SIC:v:t=custos ff	!	!	!	!	!	!	!
!	!	!	!	!	!	!	!	!	!	!	!	!	!	!	!	!	!	!	!	!	!	!	!	!LO:PB:g=original	!	!	!	!	!	!	!
2f\	que	et	ser-	vir-	vi-	cre-	in	2cc\	que	et	ser-	vir-	vi-	cre-	in-	.	.	.	.	.	.	.	.	2ff\	Que	Et	Ser-	Vir-	vi-	Cre-	.
=39-	=39-	=39-	=39-	=39-	=39-	=39-	=39-	=39-	=39-	=39-	=39-	=39-	=39-	=39-	=39-	=39-	=39-	=39-	=39-	=39-	=39-	=39-	=39-	=39-	=39-	=39-	=39-	=39-	=39-	=39-	=39-
*	*	*	*	*	*	*	*	*	*	*	*	*	*	*	*	*lig	*	*	*	*	*	*	*	*	*	*	*	*	*	*	*
2f\	tu	spi-	-mo-	-tu-	-te-	-da-	se-	2cc\	tu	spi-	-mo-	-tu-	-te-	-da-	-se-	1a	-sti	-lis	t[ans]	-mans	-ne	-ni	-rum	2ff\	tu	ſpi-	-mo-	-tu-	-te-	-da-	.
2f\	cre-	-ri-	-ne	-te	-mus	-mus	-cu-	2a\	cre-	-ri-	-ne	-re	-mus	-mus	-cu-	.	.	.	.	.	.	.	.	2ff\	cre-	-ri-	-ne	-te	-mus	-mus	.
=40-	=40-	=40-	=40-	=40-	=40-	=40-	=40-	=40-	=40-	=40-	=40-	=40-	=40-	=40-	=40-	=40-	=40-	=40-	=40-	=40-	=40-	=40-	=40-	=40-	=40-	=40-	=40-	=40-	=40-	=40-	=40-
*	*	*	*	*	*	*	*	*lig	*	*	*	*	*	*	*	*	*	*	*	*	*	*	*	*	*	*	*	*	*	*	*
1g	-a-	-ta-	di-	fir-	om-	om-	-lo-	1g	-a-	-ta-	di-	fir-	om-	om-	-lo-	1b-X	.	.	.	.	.	.	.	1dd	-a-	-ta-	di-	fir-	om-	om-	.
=41-	=41-	=41-	=41-	=41-	=41-	=41-	=41-	=41-	=41-	=41-	=41-	=41-	=41-	=41-	=41-	=41-	=41-	=41-	=41-	=41-	=41-	=41-	=41-	=41-	=41-	=41-	=41-	=41-	=41-	=41-	=41-
1d	-sti	-lis	-tans	-mans	-ne	-ni	-rum	1f	.	.	.	.	.	.	.	1a	.	.	.	.	.	.	.	1dd	-sti	.	-tans	-mans	.	-ni	.
*	*	*	*	*	*	*	*	*Xlig	*	*	*	*	*	*	*	*Xlig	*	*	*	*	*	*	*	*	*	*	*	*	*	*	*
=42-	=42-	=42-	=42-	=42-	=42-	=42-	=42-	=42-	=42-	=42-	=42-	=42-	=42-	=42-	=42-	=42-	=42-	=42-	=42-	=42-	=42-	=42-	=42-	=42-	=42-	=42-	=42-	=42-	=42-	=42-	=42-
4G/	pec-	un-	gu-	per-	no-	Tem-	se-	1e,>	-sti	-lis	-tans	-man	-ne	-ni	-rum	1g	pec-	un-	gu-	per-	no-	tem-	ſe-	1.dd	-pec-	-lis	gu-	per-	-ne	tem-	.
4A/	.	.	.	.	.	.	.	.	.	.	.	.	.	.	.	.	.	.	.	.	.	.	.	.	.	.	.	.	.	.	.
4B/	.	.	.	.	.	.	.	.	.	.	.	.	.	.	.	.	.	.	.	.	.	.	.	.	.	.	.	.	.	.	.
4c/	.	.	.	.	.	.	.	.	.	.	.	.	.	.	.	.	.	.	.	.	.	.	.	.	.	.	.	.	.	.	.
=43-	=43-	=43-	=43-	=43-	=43-	=43-	=43-	=43-	=43-	=43-	=43-	=43-	=43-	=43-	=43-	=43-	=43-	=43-	=43-	=43-	=43-	=43-	=43-	=43-	=43-	=43-	=43-	=43-	=43-	=43-	=43-
*	*	*	*	*	*	*	*	*	*	*	*	*	*	*	*	*lig	*	*	*	*	*	*	*	*	*	*	*	*	*	*	*
2d\	.	.	.	.	.	.	.	2a\	pec-	un-	gu-	per-	no-	tem-	se-	1f	-to-	-cti-	-tu-	-pe-	-xi-	-[po]-	-c[u]-	.	.	.	.	.	.	.	.
2d\	-to-	-cti-	-tu-	-pe-	-xi-	-po-	-cu-	2a\	-to-	-cti-	-tu-	-pe-	-xi-	-po-	-cu-	.	.	.	.	.	.	.	.	2dd\	-to-	un-	-tu-	-pe-	no-	-po-	.
=44-	=44-	=44-	=44-	=44-	=44-	=44-	=44-	=44-	=44-	=44-	=44-	=44-	=44-	=44-	=44-	=44-	=44-	=44-	=44-	=44-	=44-	=44-	=44-	=44-	=44-	=44-	=44-	=44-	=44-	=44-	=44-
1.G	-ra	-o	-ra	-ti	-um	-r[e]	-la	1b	-ra	-o	-ra	-t[i]	-um	-re	-la	1g	.	.	.	.	.	.	.	1dd	-ra	-ctio	-ra	-ti	-xium	-re	.
*	*	*	*	*	*	*	*	*	*	*	*	*	*	*	*	*Xlig	*	*	*	*	*	*	*	*	*	*	*	*	*	*	*
=45-	=45-	=45-	=45-	=45-	=45-	=45-	=45-	=45-	=45-	=45-	=45-	=45-	=45-	=45-	=45-	=45-	=45-	=45-	=45-	=45-	=45-	=45-	=45-	=45-	=45-	=45-	=45-	=45-	=45-	=45-	=45-
!	!	!	!	!	!	!	!	!	!	!	!	!	!	!	!	!LO:TX:a:t=3	!	!	!	!	!	!	!	!	!	!	!	!	!	!	!
.	.	.	.	.	.	.	.	2r	.	.	.	.	.	.	.	[0gl;;	-ra	-o	-ra	-ti	-um	-re	-la	2r	.	.	.	.	.	.	.
*	*	*	*	*	*	*	*	*	*	*	*	*	*	*	*	*	*	*	*	*	*	*	*	*	*	*	*	*ij	*ij	*ij	*
1c\	pec-	Un-	gu-	per-	no-	Tem-	Se-	1cc\	pec-	un-	gu-	per-	no-	tem-	se-	.	.	.	.	.	.	.	.	1ee\	pec-	un-	gu-	per-	no-	tem-	.
=46-	=46-	=46-	=46-	=46-	=46-	=46-	=46-	=46-	=46-	=46-	=46-	=46-	=46-	=46-	=46-	=46-	=46-	=46-	=46-	=46-	=46-	=46-	=46-	=46-	=46-	=46-	=46-	=46-	=46-	=46-	=46-
.	.	.	.	.	.	.	.	.	.	.	.	.	.	.	.	.	.	.	.	.	.	.	.	.	.	.	.	.	.	.	.
2c/	-to-	-cti-	-tu-	-pe-	-xi-	-po-	-cu-	2cc\	-to-	-cti-	-tu-	-pe-	-xi-	-po-	-cu-	.	.	.	.	.	.	.	.	2ee\	-to-	.	-ttu-	-pe-	-xi-	-po-	.
=47-	=47-	=47-	=47-	=47-	=47-	=47-	=47-	=47-	=47-	=47-	=47-	=47-	=47-	=47-	=47-	=47-	=47-	=47-	=47-	=47-	=47-	=47-	=47-	=47-	=47-	=47-	=47-	=47-	=47-	=47-	=47-
0G;;	-ra	-o	-ra	-ti	-um	-re	-la	0b;;	-ra	-o	-ra	-ti	-um	-re	-la	0g]	.	.	.	.	.	.	.	0dd;;	-ra.	-ctio.	-ra	-ti	-um	-re	.
*	*	*	*	*	*	*	*	*	*	*	*	*	*	*	*	*	*	*	*	*	*	*	*	*	*	*	*	*Xij	*Xij	*Xij	*
=-	=-	=-	=-	=-	=-	=-	=-	=-	=-	=-	=-	=-	=-	=-	=-	=-	=-	=-	=-	=-	=-	=-	=-	=-	=-	=-	=-	=-	=-	=-	=-
*-	*-	*-	*-	*-	*-	*-	*-	*-	*-	*-	*-	*-	*-	*-	*-	*-	*-	*-	*-	*-	*-	*-	*-	*-	*-	*-	*-	*-	*-	*-	*-
!!!system-decoration: [(g1)]
!!!AIN: 4 empty
!!!ENC: Marta Opryszak
!!!END: 2021-10-31
!!!EED: Jędrzej Mróz
!!!ESR: 2021-11-03
!!!RDF**kern: > = above
!!!RDF**kern: < = below
!!!RDF**kern: l = terminal long
